X: 20647
T: John Stenson's
R: reel
M: 4/4
K: Amajor
|:ABcA B2cB|ABcA BAFB|ABcA B2cd|e2cA BAFA|
ABcA B2cB|ABcA BAFA|d2dc dfed|1 cABG AFEF:|2 cABG AFEA||
|:e2 cA e2 cA|e2 cA BAFA|e2 cA e2 cA|B2 dB BAFA|
e2 cA e2 cA|e2 cA BAFA|d2dc dfed|cABG AFEF||

